X: 08
T: Tar and Feathers
%R: reel
B: "Twenty Four Country Dances with Figures for the Year 1813", Button & Whitaker, p.4 #2
F: http://www.vwml.org/browse/browse-collections-dance-tune-books/browse-button1813
Z: 2015 John Chambers <jc:trillian.mit.edu>
N: The Figures by Mr WILSON.
M: 2/4
L: 1/16
K: Bb
% - - - - - - - - - - - - - - - - - - - - - - - - - - - - -
|:\
Bcd2 Bcd2 | cdec BAGF | GAB2 ABc2 | Bcde d2c2 |
Bcd2 Bcd2 | cdec BAGF | GBAc Bdce | dcBA B4  :| 
|:\
dfb2 egb2 | fdBd cAF2 | GBg2 FBf2 | efde d2c2 |
dfb2 egb2 | fdBd cAFF | GBg2 fdBd | cBcd B4  :|
% - - - - - - - - - - Dance description - - - - - - - - - -
%%text SINGLE FIGURE (Each strain repeated)
%%begintext align
%% The 1st Lady sets to the 2d Gent: & turns the 3d the 1st Gent: sets to
%% the 2d Lady & turns the 3d |: lead your partner down the mid: up again &
%% lead outsides |: .
%%endtext
%%center OR THUS
%%begintext align
%% Hands 3 round on the Ladies side & the 2d Lady passes under to her place hands 3
%% on the Gents side & the 2d Gent: passes under to his place |: down the mid: & set to the top Cu: |:
%%endtext
